Sources/FrostedUI/Resources/Icons.xcassets/flagFilled24.imageset/flag-filled-24.svg

<svg width="24" height="24" viewBox="0 0 24 24" fill="none" xmlns="http://www.w3.org/2000/svg" data-fui-icon="true">
  <path
    d="M8.89258 2C10.1336 2 11.3387 2.61321 12.333 3.10547C13.4146 3.64096 14.2861 4.05566 15.1074 4.05566C15.9471 4.05561 16.8149 3.86244 17.5273 3.64062C18.6481 3.29171 19.9997 4.06926 20 5.38672V14.4619C20 15.122 19.6219 15.7622 18.96 16.0273C18.1731 16.3427 16.655 16.8613 15.1074 16.8613C13.8664 16.8613 12.6613 16.2481 11.667 15.7559C10.5854 15.2204 9.71399 14.8057 8.89258 14.8057C7.97424 14.8057 7.02431 15.0365 6.2832 15.2812C5.97109 15.3843 5.70361 15.4884 5.5 15.5723V21.25C5.5 21.6642 5.16421 22 4.75 22C4.33579 22 4 21.6642 4 21.25V4.39941C4 3.7393 4.37818 3.09922 5.04004 2.83398C5.82684 2.5187 7.34494 2.00006 8.89258 2Z"
    fill="currentColor"
  />
</svg>

<svg xmlns="http://www.w3.org/2000/svg" width="24" height="24" fill="none" data-fui-icon="true" viewBox="0 0 24 24"><path fill="currentColor" d="M8.893 2c1.24 0 2.446.613 3.44 1.105 1.082.536 1.953.95 2.774.95.84 0 1.708-.193 2.42-.414C18.648 3.29 20 4.069 20 5.387v9.075c0 .66-.378 1.3-1.04 1.565-.787.316-2.305.834-3.853.834-1.24 0-2.446-.613-3.44-1.105-1.082-.536-1.953-.95-2.774-.95-.919 0-1.869.23-2.61.475-.312.103-.58.207-.783.291v5.678a.75.75 0 0 1-1.5 0V4.4c0-.66.378-1.3 1.04-1.566C5.827 2.519 7.345 2 8.893 2"/></svg>
